!!!COM: Schiørring, Niels
!!!CDT: 1743-1798
!!!OPR@@DA: Choral-Bog
!!!ONM: 9
!!!OTL@@DA: Bryd Jeſu! Bryd det Aag
**kern	**fb	**kern	**kern	**kern	**kern	**kern	**kern	**kern
*part6	*part6	*part6	*part5	*part5	*part4	*part3	*part2	*part1
*staff8	*	*staff7	*staff6	*staff5	*staff4	*staff3	*staff2	*staff1
*clefF4	*	*clefC1	*clefF4	*clefC1	*clefF4	*clefC4	*clefC3	*clefC1
*mclefF4	*	*mclefG2	*mclefF4	*mclefG2	*mclefF4	*mclefGv2	*mclefG2	*mclefG2
*k[b-]	*	*k[b-]	*k[b-]	*k[b-]	*k[b-]	*k[b-]	*k[b-]	*k[b-]
*F:	*	*F:	*F:	*F:	*F:	*F:	*F:	*F:
*M4/4	*	*M4/4	*M4/4	*M4/4	*M4/4	*M4/4	*M4/4	*M4/4
*met(c)	*	*met(c)	*met(c)	*met(c)	*met(c)	*met(c)	*met(c)	*met(c)
*MM180	*	*MM180	*MM180	*MM180	*MM180	*MM180	*MM180	*MM180
*	*	*	*^	*^	*	*	*	*
2GG	.	2d	2G	2GG	2d	2B-	2GG	2G	2B-	2d
=1	=1	=1	=1	=1	=1	=1	=1	=1	=1	=1
4C	.	2e	2G	4C	2e	1c	(4C	2G	2c	2e
4BB-	.	.	.	4BB-	.	.	4BB-)	.	.	.
2AA	6	2f#X	2A	2AA	2f#X	.	2AA	2A	2c	2f#X
=2	=2	=2	=2	=2	=2	=2	=2	=2	=2	=2
2BB-	6	2g	2G	2BB-	2g	2d	2BB-	2G	2d	2g
2E-X	4 3	2a	[2G	2E-X	2a	2c	2E-X	[2G	2c	2a
=3	=3	=3	=3	=3	=3	=3	=3	=3	=3	=3
2D	6 4	2b-	4G]	2D	2b-	2d	2D	(4G]	2d	2b-
.	.	.	4F	.	.	.	.	4F)	.	.
2C#X	6	4a	4Eni	2C#X	4a	2eni	2C#X	(4E	2e	(4a
.	5	4g	4A	.	4g	.	.	4A)	.	4g)
=4	=4	=4	=4	=4	=4	=4	=4	=4	=4	=4
2Cni	4	2f#X	2A	2Cni	2f#X	1d	2Cni	2A	2d	2f#X
4BB-	6	2g	2G	4BB-	2g	.	(4BB-	2B-	(4d	2g
4GG	.	.	.	4GG	.	.	4GG)	.	4g)	.
=5	=5	=5	=5	=5	=5	=5	=5	=5	=5	=5
2D	#	2a	2F#X	2D	2a	2d	2D	2A	2f#X	2a
2D	.	2a	2A	2D	2a	2f#X	2D	2d	2f#	2a
=6	=6	=6	=6	=6	=6	=6	=6	=6	=6	=6
2r	.	2r	2r	2r	2r	2r	2r	2r	2r	2r
2D	#	2a	2ryy	2D	2d	2f#X	2D	2d	2f#X	2a
=7	=7	=7	=7	=7	=7	=7	=7	=7	=7	=7
2GG	8	2b-	1ryy	2GG	2d	4g	2GG	2d	(4g	2b-
.	.	.	.	.	.	4fni	.	.	4fni)	.
2AA	#	2a	.	2AA	2c#X	2e	2AA	2c#X	2e	2a
=8	=8	=8	=8	=8	=8	=8	=8	=8	=8	=8
2BBn	6	2g	2ryy	2BBn	2d	2d	2BBn	2d	2d	2g
2C#X	6	4a	2A	2C#X	4a	[2e	2C#X	2A	[2e	(4a
.	5	4g	.	.	4g	.	.	.	.	4g)
=9	=9	=9	=9	=9	=9	=9	=9	=9	=9	=9
2D	9	2f	2A	2D	2f	4e]	2D	2A	(4e]	2f
.	.	.	.	.	.	4d	.	.	4d)	.
2GG	-	2g	2ryy	2GG	2B-Xi	2d	2GG	2B-	[2d	2g
=10	=10	=10	=10	=10	=10	=10	=10	=10	=10	=10
1AA	6 4	2f	2A	1AA	2f	2d	2AA	2A	2d]	2f
.	5 #	2e	2G	.	2e	2c#X	2AA	2G	2c#X	2e
=	=	=	=	=	=	=	=	=	=	=
2D	.	2d	2F	2D	2d	2A	2D	2F	2d	2d
=11:|!	=11:|!	=11:|!	=11:|!	=11:|!	=11:|!	=11:|!	=11:|!	=11:|!	=11:|!	=11:|!
4D	#	2f#X	2A	4D	2f#X	2d	(4D	2A	2d	2f#X
4C	.	.	.	4C	.	.	4C)	.	.	.
=12	=12	=12	=12	=12	=12	=12	=12	=12	=12	=12
2BB-	6	2g	2B-	2BB-	2g	2d	2BB-	2B-	2g	2g
2AA	6	2a	2ryy	2AA	2c	2f#X	2AA	2c	2f#X	2a
=13	=13	=13	=13	=13	=13	=13	=13	=13	=13	=13
2GG	.	2b-	1ryy	2GG	2d	2g	2GG	2d	2g	2b-
2D	.	2a	.	2D	2d	2f#X	2D	2d	2f#X	2a
=14	=14	=14	=14	=14	=14	=14	=14	=14	=14	=14
*	*	*	*	*	*	*	*^	*	*	*
2r	.	2r	2r	2r	2r	2r	2r	2r	2r	2r	2r
2C	4	2f#X	2A	2C	2f#X	2d	2c	2C	2A	2d	2f#X
=15	=15	=15	=15	=15	=15	=15	=15	=15	=15	=15	=15
2BB-	6	2g	2B-	2BB-	2g	2d	2B-	2BB-	2B-	2g	2g
4AA	6	(4a	4ryy	4AA	4c	4f#X	4A	(4AA	(4c	(4f#X	(4a
4GG	.	4b-)	4ryy	4GG	4d	4g	4G	4GG)	4d)	4g)	4b-)
=16	=16	=16	=16	=16	=16	=16	=16	=16	=16	=16	=16
2FF#X	-7 5	2cc	1ryy	2FF#X	4e-X	2.a	2F#X	2FF#X	(4e-X	[2a	2cc
.	.	.	.	.	2.d	.	.	.	4d)	.	.
2GG	9	2b-	.	2GG	.	.	2G	2GG	2d	(4a]	2b-
.	.	.	.	.	.	4g	.	.	.	4g)	.
=17	=17	=17	=17	=17	=17	=17	=17	=17	=17	=17	=17
2D	4	2a	1ryy	2D	2d	2g	2D	2D	2d	2g	2a
*	*	*	*	*	*	*	*v	*v	*	*	*
2D	#	2a	.	2D	2d	2f#X	2D	2d	2f#X	2a
=18	=18	=18	=18	=18	=18	=18	=18	=18	=18	=18
2r	.	2r	2r	2r	2r	2r	2r	2r	2r	2r
2D	#	2a	2ryy	2D	2d	2f#X	2D	2d	2f#X	2a
=19	=19	=19	=19	=19	=19	=19	=19	=19	=19	=19
*	*	*	*	*	*	*^	*	*	*	*
2GG	.	2b-	2G	2GG	2b-	2g	2d\	2GG	2d	2g	2b-
*	*	*	*	*	*	*v	*v	*	*	*	*
4G	.	2b-	[2B-	4G	2b-	2d	(4G	[2B-	2d	2b-
4F	.	.	.	4Fni	.	.	4F)	.	.	.
=20	=20	=20	=20	=20	=20	=20	=20	=20	=20	=20
2E	5	2cc	2B-]	2E	2cc	2g	2E	2B-]	2g	2cc
2F	.	2cc	2A	2F	2cc	2f	2F	2A	2f	2cc
=21	=21	=21	=21	=21	=21	=21	=21	=21	=21	=21
2BB-	.	2dd	2B-	2BB-	2dd	2f	2BB-	2B-	2f	2dd
2D	6	2b-	[2B-	2D	2b-	2f	2D	[2B-	2f	2b-
=22	=22	=22	=22	=22	=22	=22	=22	=22	=22	=22
2C	7 -	2ee-X	4B-]	2C	2ee-X	2e-X	2C	(4B-]	2e-X	2ee-X
.	.	.	4A	.	.	.	.	4A)	.	.
2BB-	6	2dd	[2B-	2BB-	2dd	2f	2BB-	[2B-	2f	2dd
=23	=23	=23	=23	=23	=23	=23	=23	=23	=23	=23
1F	4	1cc	2B-]	1F	1cc	2.f	1F	(2B-]	(2.f	1cc
.	.	.	2A	.	.	.	.	2A)	.	.
.	.	.	.	.	.	4e-X	.	.	4e-X)	.
=24	=24	=24	=24	=24	=24	=24	=24	=24	=24	=24
2BB-	3	2b-	2F	2BB-	2b-	2d	2BB-	2B-	2d	2b-
2BB-	6	2d	2G	2BB-	2d	2d	2BB-	2G	2d	2d
=25	=25	=25	=25	=25	=25	=25	=25	=25	=25	=25
2C	8	2e	4G	2C	2e	2c	2C	(4G	2c	2e
.	.	.	4B-	.	.	.	.	4B-)	.	.
2C#X	6	2e	2A	2C#X	2e	[2e	2C#X	2A	[2e	2e
=26	=26	=26	=26	=26	=26	=26	=26	=26	=26	=26
2D	9 #_	2f#X	2A	2D	2f#X	2e]	2D	2A	2e]	2f#X
2D	8_	2f#	2A	2D	2f#	4d	2D	2A	(4d	2f#
.	.	.	.	.	.	4cni	.	.	4c)	.
=27	=27	=27	=27	=27	=27	=27	=27	=27	=27	=27
2E-X	 	2g	2G	2E-X	2g	2B-	2E-X	2G	2B-	2g
4D	#	2f#X	2A	4D	2f#X	2d	(4D	2A	2d	2f#X
4C	.	.	.	4C	.	.	4C)	.	.	.
=28	=28	=28	=28	=28	=28	=28	=28	=28	=28	=28
2BB-	6	2g	2G	2BB-	2g	2d	2BB-	2B-	2g	2g
2AA	6	2a	2F#X	2AA	2a	2c	2AA	2c	2f#X	2a
=29	=29	=29	=29	=29	=29	=29	=29	=29	=29	=29
2GG	.	2b-	1G	2GG	2b-	2d	2GG	2d	2.g	2b-
2E-X	6	2g	.	2E-X	2g	2c#X	2E-X	2c#X	.	2g
.	.	.	.	.	.	.	.	.	4G	.
=30	=30	=30	=30	=30	=30	=30	=30	=30	=30	=30
2D	#	2f#X	2A	2D	2f#X	1d	2D	2d	2A	2f#X
4BB-	6	2g	2G	4BB-	2g	.	(4BB-	2d	2d	2g
4GG	.	.	.	4GG	.	.	4GG)	.	.	.
=31	=31	=31	=31	=31	=31	=31	=31	=31	=31	=31
2D	#	2a	2F#X	2D	2a	2d	2D	2d	2f#X	2a
2BB-	6	2dd	2G	2BB-	2dd	[2d	2BB-	[2d	2g	2dd
=32	=32	=32	=32	=32	=32	=32	=32	=32	=32	=32
2E-X	7	2g	2G	2E-X	2g	4d]	2E-X	(4d]	2g	2g
.	.	.	.	.	.	4c	.	4c)	.	.
[2C	6 -	2a	2c	[2C	2a	2e-X	[2C	2c	2e-X	2a
=33	=33	=33	=33	=33	=33	=33	=33	=33	=33	=33
2C]	4	2f#X	2A	2C]	2f#X	1d	2C]	2A	2d	2f#X
2BB-	6	2g	[2G	2BB-	2g	.	2BB-	2d	[2g	2g
=34	=34	=34	=34	=34	=34	=34	=34	=34	=34	=34
2C	6 5 -	1a	2G]	2C	1a	2e-X	(2C	(2e-X	(2g]	1a
2D	#	.	2F#X	2D	.	2d	2D)	4d	2f#X)	.
.	.	.	.	.	.	.	.	4c)	.	.
=35	=35	=35	=35	=35	=35	=35	=35	=35	=35	=35
*	*	*	*	*	*	*^	*	*	*	*
2GG	.	2g	2G	2GG	2g	2B-	2d/	2GG	2B-	2g	2g
*	*	*	*v	*v	*	*	*	*	*	*	*
*	*	*	*	*v	*v	*v	*	*	*	*
==	==	==	==	==	==	==	==	==
*-	*-	*-	*-	*-	*-	*-	*-	*-
!!!system-decoration: {(s1,s2,s3,s4)}{(s5,s6)}{(s7,s8)}
!!!RDF**kern: i = editorial accidental
!!!RDF**kern: > = above
!!!RDF**kern: < = below
!!!AGN: chorale
!!!EED: Derek Remeš
!!!EED2: Victor Phan
!!!END: 2023/11/28
!!!ENC: Wolfgang Drescher
!!!EEV: 2023/12/06
!!!title: @{ONM}. @{OTL}